X:169
T: Little House Under the Hill
N: O'Farrell's Pocket Companion v.2 (Sky ed. p.86-7)
N: "Irish"
M: 6/8
L: 1/8
R: jig
Q: 320
K: D
d|AGF AGF|AGF A2d|AGF AGF |GEE G2B|
AGF AGF|AGF A2d|BGG AGF|BEE G2 :|
P:2
B|AFd AFd|AFd A2B|AFd AFd|GEE G2B|
AFd AFd|AFd A2d|B/d/BG A/d/AF|GEE G2 :|
P:3
B|AFF DFF|DFF A2d|AFF DFF|BEE G2B|
AFF DFF|DFF A2d|BGG AFF|BEE G2 :|
P:4
B|A2F A/d/AF|A/d/AF A2d|A2F A/d/AF|GEE G2B|
A2F A/d/AF|A/d/AF A2d|B/d/BG A/d/AF|BEE G2 :|
P:5
d|FEF DFF|DFF A2d|FEF DFF|GEE G2d|
FEF DFF|DFF A2d|BGG AGF|BEE G2 :|
